X: 10335
T: Don Leo Rankin's
R: reel
M: 4/4
K: Amixolydian
ag|f2 ed cAAa|fdfa cAAa|f2 ed cAA=c|BGD=C B,G,G,a|
f2 ed cAAa|fdfa cAAa|c'aec defd|BGBc d2||
cd|eac'a ecAc|defd ceef|eac'a ecA=c|BGBc d2 cd|
eac'a ecAc|defd e2 fg|afge fdeg|BGBc d2||

